X: 2133
T: Üzülme Bir Tanem
C: Ömer Sami Güpgüp
O: Turkey
F: http://compmusic.upf.edu/node/140
N: beyati--sarki--yuruksemai_ii--uzulme_bir--omer_sami_gupgup
N: makam= beyati
N: form= sarki
N: usul= yuruksemai_ii = 6/8
M: 6/8
L: 1/16
K: C _2/4B   
Q: 1/4=150
%%MIDI tuningsystem comma53
d2d4A6  | B4 c2d6  | c2c2 B2d4BA  | A12  | \
w:  Ü zül me   |  bir  ta nem   |  bu gün *  ler  ge  |  çer    | 
c2c2 B2d4BA  | A12  | d2d4A6  | 
w:  SAZ  |   |  Ü zül me   | 
B4 c2d6  | a2g2 f2e2 d2c2  | d12  | d2e2 f2a2 g2f2  | \
w:  bir  ta nem   |  bu gün *  ler  *  ge  |  çer    |  SAZ  | 
e2d2 c2Bc d4  | 
w:   | 
d2e2 f2f3ef2  | a2g2 f2e2 f2d2  | g2g2 g2g6  | \
w:  Ka na *  yan   |  ya ra *  lar   |  sa rıl *  maz   | 
g^f_7/8e2 edd6  | 
w:  san *  *  *  *  ma    | 
g2g2 g2g6  | g^f_7/8e2 edd6  | a2g2 f2e2 f2d2  | \
w:  SAZ  |   |  Ka na *  yan   | 
f2e2 d2c2 B2A2  | 
w:  ya ra *  lar   | 
d2c2 B2A2 B2cd  | dcB2 BAA6  | d2e2 ^f2f2 g2a2  | \
w:  sa rıl *  maz   |  san *  *  *  *  ma    |  SAZ  | 
c'2b2 c'2ba a4  | 
w:   | 
g4 a2a4a2  | a6a4a2  | a2b2 c'2c'b b2ba  | a12  | \
w:  Gön *  lün de   |  bir  baş ka   |  çi çek *  ler  *  *  a  |  çar    | 
a2b2 c'2c'b b2ba  | 
w:  SAZ  | 
a12  | a4 g2gf f2f2  | f4 e2e4d2  | d2d4dc B2c2  | d12  | \
w:   |  Gön *  lün *  *  de   |  bir  *  baş ka   |  çi çek ler  *  *  a  |  çar    | 
d2e2 f2a2 g2f2  | 
w:  SAZ  | 
e2d2 c2Bc d4  | d2e2 f2f2 e2f2  | a2g2 f2e2 f2d2  | \
w:   |  Ku ru *  yan   |  dal *  la rı   | 
g2g2 g2g6  | 
w:  ye şer *  mez   | 
g^f_7/8e2 edd6  | g2g2 g2g6  | g^f_7/8e2 edd6  | \
w:  san *  *  *  *  ma    |  SAZ  |   | 
a2g2 f2e2 f2d2  | 
w:  Ku ru *  yan   | 
f2e2 d2c2 B2A2  | d2c2 B2A2 B2cd  | dcB2 BAA6  | \
w:  dal *  la rı   |  ye şer *  mez   |  san *  *  *  *  ma    | 
d2c2 B2A2 B2cd  | 
w:  ye şer *  mez   | 
dcB2 BAA6  | |


